X: 175
T:Manchester Rambler, The
C:Ewan McColl
M:3/4
R:waltz
L:1/8
Z:added by Alf warnock alf0@rogers.com
K:A
e2|"A"c2 c2 c2|c2 A2 B2|c2 c3c|c2 A2 B2|c2 c3c|e2 d2 c2|"E7"B6-|B4 c2|
"Bm"d2 d2 d2|"E7"d2 B2 c2|"Bm"d2 d3d|"E7"d2 B2 e2|e2 e3e|G2 c2 B2|"A"A6-|A4 A2|
"A"A2 c2 e2|"C#m"a2 g2 f2|"Bm"e2 B4-|B4 c2|"D"d2 c2 d2|"E7"f2 e2 d2|"A"c6-|c4 e2|
"A"A2 c2 e2|"C#m"a2 e2 c2|"Bm"d2 B4-|B4 c2|"D"d2 c2 d2|"E7"f2 e2 G2|"A"A6|"E7"e4 e2|
"A"c2 A2 ee|c2 A2 e2|"E7"d2 B2 B2|B4 A2|"D"G2 B2 d2|"E7"f2 e2 d2|"A"c2 A2 A2|A4 c2|
A2 c2 e2|"C#m"a2 e2 c2|"Bm"d2 B4-|B4 c2|"D"d2 c2 d2|"E7"f2 e2 G2|"A"B2 A4-|A4:|

